src/img/advisory/business.svg

<svg width="32" height="26" viewBox="0 0 32 26" fill="none" xmlns="http://www.w3.org/2000/svg">
<g clip-path="url(#clip0)">
<path d="M27.9807 26H3.2847C1.46281 26 0.0369873 24.5681 0.0369873 22.7523V7.15353C0.0369873 5.33164 1.46281 3.89972 3.2847 3.89972H27.9807C29.8026 3.89972 31.2285 5.33164 31.2285 7.14743V22.7462C31.2345 24.5681 29.8026 26 27.9807 26ZM3.2847 5.19759C2.24275 5.19759 1.33485 6.10548 1.33485 7.14743V22.7462C1.33485 23.7882 2.24275 24.6961 3.2847 24.6961H27.9807C29.0227 24.6961 29.9306 23.7882 29.9306 22.7462V7.14743C29.9306 6.10548 29.0227 5.19759 27.9807 5.19759H3.2847Z" fill="#19338B"/>
<path d="M20.1812 5.19756C19.7913 5.19756 19.5293 4.93555 19.5293 4.54558V1.94985C19.5293 1.55988 19.2672 1.29787 18.8773 1.29787H12.3818C11.9919 1.29787 11.7299 1.55988 11.7299 1.94985V4.55168C11.7299 4.94164 11.4679 5.20366 11.0779 5.20366C10.6879 5.20366 10.4259 4.94164 10.4259 4.55168V1.94985C10.4259 0.907898 11.3338 0 12.3758 0H18.8773C19.9192 0 20.8271 0.907898 20.8271 1.94985V4.55168C20.8332 4.94164 20.5712 5.19756 20.1812 5.19756Z" fill="#19338B"/>
<path d="M15.6353 15.5988C15.5074 15.5988 15.5074 15.5988 15.3733 15.5988L0.426531 10.4012C0.16452 10.2733 -0.0913975 9.88331 0.0365612 9.49334C0.16452 9.23133 0.554489 8.97541 0.944459 9.10337L15.6353 14.3009L30.3262 9.10337C30.7162 8.97541 30.9782 9.10337 31.1062 9.49334C31.2341 9.88331 31.1062 10.1453 30.7162 10.2733L15.7694 15.4708C15.7633 15.5988 15.7633 15.5988 15.6353 15.5988Z" fill="#19338B"/>
</g>
<defs>
<clipPath id="clip0">
<rect width="31.2341" height="26" fill="white"/>
</clipPath>
</defs>
</svg>

<svg xmlns="http://www.w3.org/2000/svg" width="32" height="26" fill="none"><g fill="#19338B" clip-path="url(#clip0)"><path d="M27.98 26H3.28a3.22 3.22 0 01-3.24-3.25V7.15A3.22 3.22 0 013.28 3.9h24.7a3.22 3.22 0 013.25 3.25v15.6A3.21 3.21 0 0127.98 26zM3.28 5.2a2 2 0 00-1.95 1.95v15.6a2 2 0 001.95 1.95h24.7a2 2 0 001.95-1.95V7.15a2 2 0 00-1.95-1.95H3.28z"/><path d="M20.18 5.2c-.39 0-.65-.26-.65-.65v-2.6c0-.39-.26-.65-.65-.65h-6.5c-.39 0-.65.26-.65.65v2.6c0 .4-.26.65-.65.65-.4 0-.65-.26-.65-.65v-2.6A2 2 0 0112.38 0h6.5a2 2 0 011.95 1.95v2.6c0 .4-.26.65-.65.65zM15.64 15.6c-.13 0-.13 0-.27 0L.43 10.4c-.27-.13-.52-.52-.4-.9.13-.27.52-.52.91-.4l14.7 5.2 14.69-5.2c.39-.12.65 0 .78.4.12.38 0 .65-.4.77l-14.94 5.2c0 .13 0 .13-.13.13z"/></g><defs><clipPath id="clip0"><path fill="#fff" d="M0 0h31.23v26H0z"/></clipPath></defs></svg>
